X: 316
T:Castle Kelly
M:C
L:1/8
Q:220
R:reel
Z:Jaya R. Carl, March 18, 2004
K:ADor
|:"Am"A2cA ABcA| "C"GcEG "G"G4| "Am"A2cA "G"GAcd| "F"ec"G"dB "Am"cAA2|
 "Am"A2cA "G"ABcA| "F"GcEG "G"G2 EG| "Am"A2cA "G"GAcd| "Am"ecdB "F"cAA2:|
 "Dm"agec "Em"d2ed| "F"cAGE "G"G3 g| "Am"agec "G"d2cd| "Am"eaag "G"a2ba|
 "Dm"gedc "Em"d2ed|"F"cAGE "G"G2EG| "Am"A2cA "G"GAcd| "F"ec"G"dB "Am"cAA2:|
